src/assets/icons/cog.svg

<svg width="14" height="14" viewBox="0 0 14 14" fill="none" xmlns="http://www.w3.org/2000/svg">
<g id="cog">
<g clip-path="url(#clip0_156_4649)">
<g id="Vector">
<path fill-rule="evenodd" clip-rule="evenodd" d="M4.65462 7.00002C4.65462 8.29348 5.7065 9.34536 6.99995 9.34536C8.29341 9.34536 9.34529 8.29348 9.34529 7.00002C9.34529 5.70657 8.29341 4.65469 6.99995 4.65469C5.7065 4.65469 4.65462 5.70657 4.65462 7.00002ZM5.85448 7.00082C5.85448 6.3689 6.36803 5.85536 6.99995 5.85536C7.63108 5.85536 8.14542 6.3689 8.14542 7.00082C8.14542 7.63275 7.63188 8.14629 6.99995 8.14629C6.36803 8.14629 5.85448 7.63275 5.85448 7.00082Z" fill="black"/>
<path fill-rule="evenodd" clip-rule="evenodd" d="M5.28257 12.2106C5.28257 13.1977 6.07368 14 7.04637 14C8.00226 14 8.81017 13.1689 8.81097 12.189C8.81177 12.0314 8.90936 11.861 9.03574 11.8074C9.15973 11.7531 9.34531 11.7947 9.4517 11.8986C10.146 12.5922 11.2707 12.5954 11.9586 11.9082C12.293 11.5739 12.473 11.1243 12.4658 10.6436C12.4594 10.1716 12.2722 9.72929 11.945 9.40212C11.8378 9.29254 11.7994 9.11416 11.8554 8.98777C11.8562 8.98537 11.857 8.98377 11.8578 8.98137C11.9106 8.85819 12.0634 8.7646 12.2106 8.7638C13.1977 8.7638 14 7.97269 14 7C14 6.04411 13.1697 5.2362 12.189 5.2362C12.0418 5.2354 11.865 5.12181 11.8074 4.98823C11.7506 4.86184 11.7962 4.65387 11.8986 4.54908C12.5921 3.85396 12.5961 2.72929 11.9082 2.04217C11.5739 1.7078 11.1395 1.52782 10.6436 1.53502C10.1716 1.54142 9.72927 1.7286 9.4021 2.05576C9.29252 2.16215 9.11414 2.20055 8.98135 2.14215C8.85817 2.08936 8.76458 1.93658 8.76378 1.7894C8.76378 0.802308 7.97267 0 6.99998 0C6.04409 0 5.23618 0.830305 5.23618 1.81099C5.23538 1.95818 5.12179 2.13496 4.98821 2.19255C4.86262 2.25014 4.65385 2.20375 4.54906 2.10136C3.85394 1.40704 2.72927 1.40384 2.04215 2.09176C1.70778 2.42612 1.5278 2.87567 1.535 3.35642C1.5414 3.82836 1.72858 4.27071 2.05574 4.59787C2.16293 4.70666 2.20133 4.88504 2.13093 5.04742C2.08294 5.17781 1.93016 5.2794 1.78937 5.2826C0.802287 5.2826 -2.28882e-05 6.07371 -2.28882e-05 7.0464C-2.28882e-05 8.00229 0.830282 8.81019 1.81097 8.81019C1.96855 8.81099 2.13893 8.90858 2.19253 9.03497C2.24772 9.15975 2.20533 9.34373 2.10134 9.45092C1.40782 10.146 1.40382 11.2707 2.09174 11.9578C2.4261 12.2922 2.86365 12.4594 3.35639 12.465C3.82834 12.4586 4.27069 12.2714 4.59785 11.9442C4.70664 11.8378 4.88582 11.8003 5.0474 11.869C5.17779 11.917 5.27937 12.0698 5.28257 12.2106ZM5.49695 10.7572C5.30097 10.6708 5.0922 10.6284 4.88262 10.6284C4.47307 10.6284 4.06271 10.7884 3.75315 11.0907C3.52758 11.3155 3.15402 11.3243 2.93804 11.1075C2.72207 10.8924 2.72687 10.5212 2.95404 10.294C3.40999 9.82768 3.54437 9.12696 3.2924 8.55582C3.05083 7.99349 2.4581 7.61273 1.81337 7.61033C1.48621 7.61033 1.19984 7.34636 1.19984 7.0464C1.19984 6.74083 1.46941 6.48246 1.80297 6.48246C2.4541 6.46726 3.03803 6.05691 3.24281 5.49697C3.49798 4.91944 3.36599 4.22032 2.90925 3.75317C2.68367 3.5276 2.67567 3.15484 2.89245 2.93806C3.10762 2.72209 3.47798 2.72769 3.70595 2.95406C4.1683 3.40681 4.89622 3.54439 5.46735 3.29242C6.03529 3.04845 6.43364 2.44212 6.43604 1.81339C6.43604 1.48623 6.70001 1.19986 6.99998 1.19986C7.30554 1.19986 7.56391 1.46943 7.56391 1.7918C7.56711 2.41972 7.94627 3.00446 8.50301 3.24283C9.08134 3.4988 9.77966 3.36522 10.2468 2.90927C10.4724 2.68449 10.8451 2.67649 11.0619 2.89247C11.2779 3.10764 11.2731 3.4788 11.0459 3.70598C10.5932 4.16912 10.4556 4.89624 10.7076 5.46737C10.9515 6.03531 11.5579 6.43366 12.1866 6.43606C12.5138 6.43606 12.8001 6.70003 12.8001 7C12.8001 7.30557 12.5305 7.56394 12.2082 7.56394C11.5811 7.56713 10.9987 7.94469 10.7563 8.50543C10.502 9.08216 10.6348 9.78048 11.0907 10.2468C11.3163 10.4724 11.3243 10.8452 11.1075 11.0619C10.8923 11.2787 10.522 11.2723 10.294 11.0459C9.82766 10.5908 9.12694 10.4556 8.5558 10.7076C7.99346 10.9491 7.61271 11.5419 7.61031 12.1866C7.61031 12.5138 7.34634 12.8001 7.04637 12.8001C6.74081 12.8001 6.48244 12.5306 6.48244 12.197C6.46724 11.5459 6.05688 10.9619 5.49695 10.7572Z" fill="black"/>
</g>
</g>
</g>
<defs>
<clipPath id="clip0_156_4649">
<rect width="14" height="14" fill="white"/>
</clipPath>
</defs>
</svg>

<svg xmlns="http://www.w3.org/2000/svg" fill="none" viewBox="0 0 14 14"><g fill="#000" fill-rule="evenodd" clip-path="url(#a)" clip-rule="evenodd"><path d="M4.655 7A2.35 2.35 0 0 0 7 9.345 2.35 2.35 0 0 0 9.345 7 2.35 2.35 0 0 0 7 4.655 2.35 2.35 0 0 0 4.655 7m1.2 0a1.146 1.146 0 0 1 2.29 0 1.146 1.146 0 0 1-2.29 0"/><path d="M5.283 12.21c0 .988.79 1.79 1.763 1.79.956 0 1.764-.831 1.765-1.811 0-.158.098-.328.225-.382.124-.054.31-.012.416.092a1.776 1.776 0 0 0 2.507.01c.334-.335.514-.785.507-1.265a1.78 1.78 0 0 0-.521-1.242c-.107-.11-.146-.288-.09-.414l.003-.007c.053-.123.205-.216.353-.217C13.198 8.764 14 7.973 14 7c0-.956-.83-1.764-1.811-1.764a.46.46 0 0 1-.382-.248c-.056-.126-.01-.334.092-.439.693-.695.697-1.82.01-2.507a1.7 1.7 0 0 0-1.265-.507 1.78 1.78 0 0 0-1.242.52.4.4 0 0 1-.42.087c-.124-.053-.217-.205-.218-.353C8.764.802 7.973 0 7 0c-.956 0-1.764.83-1.764 1.811a.46.46 0 0 1-.248.382c-.125.057-.334.01-.439-.092a1.775 1.775 0 0 0-2.507-.01 1.74 1.74 0 0 0-.507 1.265c.006.472.194.915.52 1.242a.41.41 0 0 1 .076.45.39.39 0 0 1-.342.235C.802 5.283 0 6.073 0 7.046 0 8.002.83 8.81 1.811 8.81c.158.001.328.099.382.225.055.125.012.309-.092.416a1.775 1.775 0 0 0-.01 2.507c.335.334.773.501 1.265.507a1.78 1.78 0 0 0 1.242-.52.42.42 0 0 1 .45-.076c.13.048.231.2.235.342m.214-1.453a1.5 1.5 0 0 0-.614-.129c-.41 0-.82.16-1.13.463-.225.225-.599.233-.815.017a.58.58 0 0 1 .016-.814c.456-.466.59-1.167.338-1.738-.241-.563-.834-.943-1.479-.946-.327 0-.613-.264-.613-.564 0-.305.27-.564.603-.564.651-.015 1.235-.425 1.44-.985a1.59 1.59 0 0 0-.334-1.744c-.225-.225-.233-.598-.017-.815s.586-.21.814.016c.462.453 1.19.59 1.761.338.568-.244.967-.85.969-1.479 0-.327.264-.613.564-.613.306 0 .564.27.564.592.003.628.382 1.212.939 1.45a1.59 1.59 0 0 0 1.744-.333c.225-.225.598-.233.815-.017a.58.58 0 0 1-.016.814c-.453.463-.59 1.19-.338 1.761.243.568.85.967 1.479.97.327 0 .613.263.613.563 0 .306-.27.564-.592.564-.627.003-1.21.38-1.452.941a1.59 1.59 0 0 0 .335 1.742c.225.225.233.598.017.815s-.586.21-.814-.016c-.466-.455-1.167-.59-1.738-.338-.563.241-.943.834-.946 1.479 0 .327-.264.613-.564.613-.305 0-.564-.27-.564-.603-.015-.651-.425-1.235-.985-1.44"/></g><defs><clipPath id="a"><path fill="#fff" d="M0 0h14v14H0z"/></clipPath></defs></svg>
